icons/round/editor/ic_border_style_24px.svg

<svg xmlns="http://www.w3.org/2000/svg" height="24" viewBox="0 0 24 24" width="24"><path d="M0 0h24v24H0V0z" fill="none"/><path d="M15 21h2v-2h-2v2zm4 0h2v-2h-2v2zM7 21h2v-2H7v2zm4 0h2v-2h-2v2zm8-4h2v-2h-2v2zm0-4h2v-2h-2v2zM3 5v15c0 .55.45 1 1 1s1-.45 1-1V6c0-.55.45-1 1-1h14c.55 0 1-.45 1-1s-.45-1-1-1H5c-1.1 0-2 .9-2 2zm16 4h2V7h-2v2z"/></svg>

<svg xmlns="http://www.w3.org/2000/svg" enable-background="new 0 0 24 24" height="24" viewBox="0 0 24 24" width="24"><g><rect fill="none" height="24" width="24"/></g><g><g><g><path d="M15,21h2v-2h-2V21z M19,21h2v-2h-2V21z M7,21h2v-2H7V21z M11,21h2v-2h-2V21z M19,17h2v-2h-2V17z M19,13h2v-2h-2V13z M3,5 v15c0,0.55,0.45,1,1,1l0,0c0.55,0,1-0.45,1-1V5h15c0.55,0,1-0.45,1-1l0,0c0-0.55-0.45-1-1-1H5C3.9,3,3,3.9,3,5z M19,9h2V7h-2V9z"/></g></g></g></svg>
